X:18
T:Mick Carr's
R:barndance
D:Terry Bingham
Z:id:hn-barndance-18
M:C|
L:1/8
K:G
DGGB d2 (3Bcd | gdBG c2cd | DFAB c2cd | (3efg dc B2Bd |
DGGB d2 (3Bcd | gdBG c2cd | DEFG ABcA |1 (3GAG FA G2Gd :|2 (3GAG FA G2Bc ||
|: dedc BGGB | dedB g2AB | cdcB A=FFA | cdcA d2Bc |
dedc BGGB | dedB g2fg | efge dcBA |1 (3GAG FA G2Bc :|2 (3GAG FA G2Gd ||

